X:23
T:Successfull Campain. VWMLa.023
%%VWML:Anon2-3049-p15-0
F:http://www.vwml.org/record/Anon2/3049/p15
S:Anon. MS, late 18thC, Vaughan Williams Mem. Library
N:Unsuccessful spelling.
O:England;Yorkshire
Z:vmp/efdss.Simon Wilson. Reviewed PJH 2008.
M:C
L:1/8
Q:2/4=90
K:G
G2GB A2Ac|BGBd g4|gfed edcB|cABG {G}F2ED|\
G2GB A2Ac|BGBd g4|(f/g/a) fd (e/f/g) ec|egfe d4:|
|:d2d=f e2d2|edcB cBA2|c2ce d2c2|dcBA B2G2|\
G2GB A2Ac|BGBd g4|gfed edcB|cBAB G4:|
T:Maid of Bath. VWMLa.024
R:Country-dance
S:Anon. MS, late 18thC, Vaughan Williams Mem. Library
O:England;Yorkshire
Z:vmp/efdss.Simon Wilson. Reviewed PJH 2008.
M:2/4
L:1/16
Q:1/4=90
K:A
A2A2 cdec|B2B2 Bcde|f2f2 fgaf|edcB AGFE|
A2A2 cdec|B2B2 Bcde|f2f2 fgaf|edcB A4:|
|:a2fa g2eg|f2df e2ce|a2fa g2ga|bagf  edcB|
A2A2 cdec|B2B2 Bcde|f2f2 fgaf|edcB A4:|
